X: 798
T: Al-Alándalus, The
R: reel
M: 4/4
K: Bminor
bfff gfed|efff gfeg|fb c'd'2c' c'b|b^aag gfef|bfff gfed|
efff gfeg|f^e =ec2^A cg|edc^A B2fa|bfff gfed|
efff gfeg|fb c'd'2c' c'b|b^aag gfef|bfff gfed|
efff gfeg|f^e =ec2^A cg|edc^A B2 F^A|BFFF BFcF|
FFcF dFFF|B^A cf2efg|f^eed dcc^A|BFFF BFcF|
FFcF dFFF|B^A cf2efg|edc^A B2 F^A|BFFF BFcF|
FFcF dFFF|B^A cf2efg|f^eed dcc^A|BFFF BFcF|
FFcF dFFF|B^A cf2efg|edc^A B4|

